!!!!SEGMENT: pl-wumfc--r282--001-006_paderewski-ignacy-jan--exercises-1-exercise-6.krn
!!!cenid: 18xx:3165
!!!COM: Paderewski, Ignacy Jan
!!!COM-rismID: pe30029943
!!!CDT: 1860/11/18-1941/06/29
!!!CNT: Polish
!!!GTL: [Exercises 1]
!!!OTL: [Exercise] 6
!!!OMV: 006
!!!PDT:
!!!AGN:
!!!SMS-siglum: PL-Wumfc
!!!SMS-shelfmark: R282
!!!SMS-shelfwork: 001-006 G
!!!SMS-variant:
!!!SMS-altvar:
!!!NIFC-rismSourceID: 1001158933
!!!NIFC-rismChildID: 1001158933
!!!NIFC-islandoraID: pl-wumfc:419
!!!URL-pdf-islandora: https://repozytorium.nifc.pl/islandora/object/pl-wumfc%3A419/datastream/PDF/view
!!!URL-scan: https://polish.musicsources.pl/pl/lokalizacje/galeria/rekopisy/4702 @EN{Scan on Polish Music Sources Website} @PL{Skany w portalu Dziedzictwo Muzyki Polskiej w otwartym dostępie}
!!!IIIF:
!!!ONB-nifc: UWAGA: pierwsza grupa ćwiczeń na skanach 0004-0007
!!!AIN: 1 piano
!!!key: e
!!!filter-modern: sic -sq | shed -e "s/TX(.*):t=P:/tx$1:t=P:/LG" | autostem -r | modori -m |
**kern	**kern
*part1	*part1
*staff2	*staff1
*>[A,A,B]	*>[A,A,B]
*I"[Pianoforte]	*I"[Pianoforte]
*I'	*I'
*mI"Pianoforte	*mI"Pianoforte
*mI'pf	*mI'pf
*Ipiano	*Ipiano
*ICklav	*ICklav
*IGsolo	*IGsolo
*clefF4	*clefG2
*k[f#]	*k[f#]
*e:	*e:
!LO:MO:null:mod=*M6/4	!LO:MO:null:mod=*M6/4
*	*
*>A	*>A
!LO:TX:a:t=C. f	!LO:TX:t=P:problem=brak oznaczenia metrycznego / klucza
2.E\	4r
.	4ee\
.	4dd\
=1	=1
2.A\	4cc\
.	4dd\
.	4cc\
2.G\	4ee\
.	4b\
.	4cc\
=2	=2
2.F#\	4dd\
.	4a\
.	4b\
2.E\	4cc\
.	4dd\
.	4ee\
=3	=3
1.D#X	4ff#\
.	4f#/
.	4g/
.	4a/
.	4b/
.	4a/
=4	=4
!	!LO:MO:mod=!null:null
!	!LO:N:vis=2
!	!LO:SIC:s=2.g;
2.E;\	2.g;</
2.B\	4gg\
.	4dd\
.	4ff#\
=5	=5
2.c\	4ee\
.	4dd\
.	4cc\
2.c\	4ee\
.	4e/
.	4f#/
=6	=6
*	*^
2.B\	4g#X/	2ryy
.	4a/	.
*	*cue	*
.	4b/	4g#/
*	*Xcue	*
2.B\	4dd\	4ryy
.	4cc\	2ryy
.	4b\	.
*	*v	*v
=7	=7
[1.A	4cc\
.	4c/
.	4d/
.	4e/
.	4f#X/
.	4g#X/
=8	=8
!	!LO:N:vis=2
2.A;\]	2.a;/
=:|!	=:|!
*>B	*>B
2.c\	4ee/
.	4dd/
.	4cc/
=9	=9
2.B\	4dd/
.	4g/
.	4a/
2.G\	4b/
.	4cc/
.	4dd/
=10	=10
2.A\	4cc/
.	4b/
.	4a/
2.B\	4g/
.	4gg/
.	4ff#X/
=11	=11
1.c	4ee/
.	4ffn/
.	4ee/
.	4gg/
.	4ee/
.	4dd/
=12	=12
2.c;\	2cc;/
.	4cc/
2.G\	4ee/
.	4ff#X/
.	4gg/
!!LO:LB:g=original
=13	=13
2.A\	4ff#\
.	4ee\
.	4dd#X\
2.G\	4ee\
.	4b\
.	4ddn\
=14	=14
2.A\	4cc\
.	4f#/
.	4g/
2.F#\	4a/
.	4b/
.	4a/
=15	=15
1.E	4g/
.	4e/
.	4f#/
.	4g/
.	4a/
.	4b/
=16	=16
!	!LO:SIC:s=4cc#X\;
2.E;\	4cc#X\
.	4dd#X\
.	4ee\
2.c\	4a\
.	4b\
.	4cc#\
=17	=17
2.B\	4dd\
.	4cc\
.	4b\
2.d\	4a/
.	4g/
.	4f#/
=18	=18
2.c\	4g/
.	4e/
.	4f#/
2.B\	4g/
.	4f#/
.	4e/
=19	=19
1.A	4f#/
.	4g/
.	4f#/
.	4e/
.	4f#/
.	4e/
=20	=20
!	!LO:TX:t=P:problem=niejednoznaczny zapis łuk / fermata
2.B;\	4d#X;/
.	4e/
.	4f#/
2.E\	4g/
.	4a/
.	4b/
=21	=21
2.F#\	4a/
.	4cc/
.	4dd\
2.E\	4ee\
.	4g/
.	4a/
=22	=22
2.D#X\	4b\
.	4cc\
.	4b\
2.D#\	4a/
.	4b/
.	4a/
=23	=23
1.E	4g/
.	4b/
.	4a/
.	4g/
.	4f#/
.	4g/
=24	=24
!LO:SIC:s=2.E\;	!LO:SIC:s=2.e/;
2.E\	2.e/
==	==
*-	*-
!!!system-decoration: {(s1,s2)}
!!!RDF**kern: > = above
!!!RDF**kern: < = below
!!!ENC: Andrzej Kubiczek
!!!END: 2021-11-11
!!!ENC: Andrzej Kubiczek
!!!END: 2021-11-13
!!!ENC-modern: Andrzej Borzym
!!!END-modern: 2022-08-29
!!!YEC: Copyright 2022 Narodowy Instytut Fryderyka Chopina (https://polishscores.org)
!!!YEM: License CC-BY-4.0 (https://creativecommons.org/licenses/by/4.0)
